X:160
T:Jacksons Dream
A:Wyresdale, Lancashire
B:H.S.J. Jackson, 1823
L:1/8
M:6/8
O:England
Z:Richard Robinson 
%%TUNEURL: http://www.leeds.ac.uk/music/Info/RRTuneBk/gettune/000005b9.html
%%ID:000005b9
K:D
F | \
DED D2d | (AGF) F2d | (AGF) (FED) | EFE TE2F | \
DED D2d | AGF  TF2d | AGF FED | D/E/FD D2 ::
g | \
f2d edB | ABd d2g | f2d edB | ABd Te2g | \
f2d edB | (f/g/a)f g2e | (f/g/a)f g2e | fdd d2 ::
